X:214
T:Miss McPherson Grant of Ballindalloch
C:Wm. Marshall
R:Jig
M:6/8
%%printtempo 0
Q:180
K:A
E|:\
"A"E2 AA2F| "E7"GAB Bcd| "A"c2E AGA| "E7"B3E3|
"A"E2e e2c|1 "D"dcd "E7"Bcd| "A"cde "D"fed| "A"cBA "E7"GFE:|
[2 "D"dcd "E7"Bcd| "A"cBA "E7"EFG| "A"A3 A2| A|
"A"C2E A2=G |"D"FEF D2F| "D7"d2c BcB| "E7"G3 E2E|
"D"FGA Bcd| "A"cde fga| "E7"gfe "B7"Bc^d| "E"e3 e2z|
"D"f2D fed| "A"e2c ecA| "D"FGA "E7"BcA| "E7"G3E3|
"D"F2d "A"E2c| "E7"D2B "A"C2e| "A"cBA "E7"EFG| "A"A3A,3|]
